X:2
T:As the Sun Was Setting
S:Bernie Waugh
R:Waltz
M:3/4
L:1/4
K:A minor
|:E|\
"Am"A>BA|e2a|"Em"g>ag|e2d|\
"Am"c>BA|"G"B>AG|"F"A>BA|"Em"E2E|
"Am"A>BA|e2a|"C"g>ag|e2d|\
"Am"c>BA|"Em"e>de|"Am"A2G|A2:|
|:e|\
"Am"a>ba|"E"=g2e/^f/|"G"g>ag|"D"^f2d/e/|\
"F"f>gf|"C"e2d|"F"c>dc|"G"B2G|
"Am"A>BA|e2a|"C"g>ag|e2d|\
"Am"c>BA|"Em"e>de|"Am"A2G|A2:|


